images/infos/behance.svg

<svg xmlns="http://www.w3.org/2000/svg" width="28.015" height="17" viewBox="0 0 28.015 17"><path fill="#fff" d="M11.283 7.61c.779-.357 1.361-.816 1.759-1.376.393-.562.59-1.263.59-2.103 0-.777-.132-1.434-.395-1.958-.269-.533-.645-.955-1.124-1.273-.488-.318-1.065-.549-1.741-.688-.68-.143-1.424-.212-2.248-.212h-8.124v16.688h8.353c.771 0 1.525-.095 2.252-.281.734-.186 1.39-.473 1.959-.865.567-.388 1.026-.891 1.364-1.511.333-.613.501-1.341.501-2.188 0-1.043-.256-1.934-.779-2.678-.521-.74-1.307-1.26-2.367-1.555zm-7.489-4.768h3.549c.336 0 .664.023.976.083.318.053.593.15.835.293.246.136.439.331.586.58.141.25.211.57.211.958 0 .7-.211 1.209-.648 1.519-.441.313-.998.467-1.67.467h-3.839v-3.9zm6.624 9.879c-.153.282-.363.504-.617.666-.253.168-.555.282-.894.354-.335.072-.69.104-1.064.104h-4.049v-4.595h4.125c.816 0 1.48.182 1.978.548.497.371.747.981.747 1.841 0 .439-.073.802-.226 1.082zm13.426 1.292c-.501.338-1.099.507-1.79.507-.961 0-1.703-.243-2.216-.729-.515-.486-.849-1.39-.849-2.346h9.004c.063-.937-.014-1.833-.238-2.689-.227-.858-.589-1.624-1.098-2.293-.508-.67-1.155-1.206-1.945-1.601-.792-.4-1.718-.597-2.772-.597-.956 0-1.819.165-2.602.491-.783.329-1.456.778-2.022 1.348-.565.566-.996 1.242-1.307 2.024-.305.781-.461 1.625-.461 2.529 0 .933.15 1.796.448 2.574.301.783.723 1.45 1.268 2.015.557.561 1.221.991 2.015 1.298.793.303 1.678.456 2.66.456 1.41 0 2.621-.312 3.613-.939 1.003-.626 1.739-1.664 2.225-3.119h-3.019c-.116.373-.417.735-.914 1.071zm-4.698-5.456c.088-.302.239-.583.459-.851.223-.263.514-.486.868-.666.363-.182.815-.271 1.363-.271.843 0 1.532.236 1.939.673.409.44.708 1.065.79 1.912h-5.576c.016-.236.069-.502.157-.797zm6.127-7.437h-6.985v1.646h6.985v-1.646z"/></svg>

<?xml version="1.0" encoding="utf-8"?>
<!-- Generator: Adobe Illustrator 16.0.0, SVG Export Plug-In . SVG Version: 6.00 Build 0)  -->
<!DOCTYPE svg PUBLIC "-//W3C//DTD SVG 1.1//EN" "http://www.w3.org/Graphics/SVG/1.1/DTD/svg11.dtd">
<svg version="1.1" id="Layer_1" xmlns="http://www.w3.org/2000/svg" xmlns:xlink="http://www.w3.org/1999/xlink" x="0px" y="0px"
	 width="28.015px" height="17px" viewBox="0 0 28.015 17" enable-background="new 0 0 28.015 17" xml:space="preserve">
<g>
	<g>
		<path fill="#FFFFFF" d="M11.283,7.61c0.779-0.357,1.361-0.816,1.759-1.376c0.393-0.562,0.59-1.263,0.59-2.103
			c0-0.777-0.132-1.434-0.395-1.958C12.968,1.64,12.592,1.218,12.113,0.9c-0.488-0.318-1.065-0.549-1.741-0.688
			C9.692,0.069,8.948,0,8.124,0H0v16.688h8.353c0.771,0,1.525-0.095,2.252-0.281c0.734-0.186,1.39-0.473,1.959-0.865
			c0.567-0.388,1.026-0.891,1.364-1.511c0.333-0.613,0.501-1.341,0.501-2.188c0-1.043-0.256-1.934-0.779-2.678
			C13.129,8.425,12.343,7.905,11.283,7.61z M3.794,2.842h3.549c0.336,0,0.664,0.023,0.976,0.083c0.318,0.053,0.593,0.15,0.835,0.293
			C9.4,3.354,9.593,3.549,9.74,3.798c0.141,0.25,0.211,0.57,0.211,0.958c0,0.7-0.211,1.209-0.648,1.519
			c-0.441,0.313-0.998,0.467-1.67,0.467H3.794V2.842z M10.418,12.721c-0.153,0.282-0.363,0.504-0.617,0.666
			c-0.253,0.168-0.555,0.282-0.894,0.354c-0.335,0.072-0.69,0.104-1.064,0.104H3.794V9.25h4.125c0.816,0,1.48,0.182,1.978,0.548
			c0.497,0.371,0.747,0.981,0.747,1.841C10.644,12.078,10.571,12.441,10.418,12.721z M23.844,14.013
			c-0.501,0.338-1.099,0.507-1.79,0.507c-0.961,0-1.703-0.243-2.216-0.729c-0.515-0.486-0.849-1.39-0.849-2.346h9.004
			c0.063-0.937-0.014-1.833-0.238-2.689c-0.227-0.858-0.589-1.624-1.098-2.293c-0.508-0.67-1.155-1.206-1.945-1.601
			c-0.792-0.4-1.718-0.597-2.772-0.597c-0.956,0-1.819,0.165-2.602,0.491c-0.783,0.329-1.456,0.778-2.022,1.348
			c-0.565,0.566-0.996,1.242-1.307,2.024c-0.305,0.781-0.461,1.625-0.461,2.529c0,0.933,0.15,1.796,0.448,2.574
			c0.301,0.783,0.723,1.45,1.268,2.015c0.557,0.561,1.221,0.991,2.015,1.298C20.072,16.847,20.957,17,21.939,17
			c1.41,0,2.621-0.312,3.613-0.939c1.003-0.626,1.739-1.664,2.225-3.119h-3.019C24.642,13.315,24.341,13.677,23.844,14.013z
			 M19.146,8.557c0.088-0.302,0.239-0.583,0.459-0.851c0.223-0.263,0.514-0.486,0.868-0.666c0.363-0.182,0.815-0.271,1.363-0.271
			c0.843,0,1.532,0.236,1.939,0.673c0.409,0.44,0.708,1.065,0.79,1.912h-5.576C19.005,9.118,19.058,8.852,19.146,8.557z
			 M25.273,1.12h-6.985v1.646h6.985V1.12z"/>
	</g>
</g>
</svg>
